app/images/rus.svg

<svg width="30" height="13" viewBox="0 0 30 13" version="1.1" xmlns="http://www.w3.org/2000/svg" xmlns:xlink="http://www.w3.org/1999/xlink">
<title>rus_lang</title>
<desc>Created using Figma</desc>
<g id="Canvas" transform="translate(-4622 -171)">
<g id="rus_lang">
<g id="Page 1">
<g id="&#208;&#167;&#209;&#130;&#208;&#190; &#209;&#130;&#208;&#176;&#208;&#186;&#208;&#190;&#208;&#181; &#208;&#163;&#209;&#135;&#208;&#184;.&#209;&#128;&#209;&#131; | 768  1024">
<g id="What is olymp">
<g id="Table">
<g id="Page 1">
<g id="Fill 1">
<use xlink:href="#path0_fill" transform="translate(4644.53 171.96)" fill="#6F578E"/>
</g>
<g id="Fill 3">
<use xlink:href="#path1_fill" transform="translate(4634.42 172.035)" fill="#FFC609"/>
</g>
<g id="Fill 5">
<use xlink:href="#path2_fill" transform="translate(4628.62 172.946)" fill="#231F1F"/>
</g>
<g id="Group 9">
<g id="Fill 7">
<use xlink:href="#path3_fill" transform="translate(4622 171.875)" fill="#F05A69"/>
</g>
</g>
<g id="Fill 10">
<use xlink:href="#path4_fill" transform="translate(4650.74 174.407)" fill="#644F82"/>
</g>
<g id="Fill 12">
<use xlink:href="#path5_fill" transform="translate(4645.01 179.824)" fill="#644F82"/>
</g>
<g id="Fill 14">
<use xlink:href="#path6_fill" transform="translate(4646.02 181.616)" fill="#644F82"/>
</g>
<g id="Fill 16">
<use xlink:href="#path7_fill" transform="translate(4644.85 180.814)" fill="#644F82"/>
</g>
<g id="Fill 18">
<use xlink:href="#path8_fill" transform="translate(4644.92 181.794)" fill="#644F82"/>
</g>
<g id="Fill 20">
<use xlink:href="#path9_fill" transform="translate(4650.46 175.383)" fill="#644F82"/>
</g>
<g id="Fill 22">
<use xlink:href="#path10_fill" transform="translate(4645.68 174.039)" fill="#644F82"/>
</g>
<g id="Fill 24">
<use xlink:href="#path11_fill" transform="translate(4649.56 181.884)" fill="#644F82"/>
</g>
<g id="Fill 26">
<use xlink:href="#path12_fill" transform="translate(4650.76 180.23)" fill="#644F82"/>
</g>
<g id="Fill 28">
<use xlink:href="#path13_fill" transform="translate(4650.15 181.539)" fill="#644F82"/>
</g>
<g id="Fill 30">
<use xlink:href="#path14_fill" transform="translate(4644.91 172.445)" fill="#644F82"/>
</g>
<g id="Fill 32">
<use xlink:href="#path15_fill" transform="translate(4646.34 172.794)" fill="#644F82"/>
</g>
<g id="Fill 34">
<use xlink:href="#path16_fill" transform="translate(4644.81 174.039)" fill="#644F82"/>
</g>
</g>
</g>
</g>
</g>
</g>
</g>
</g>
<defs>
<path id="path0_fill" fill-rule="evenodd" d="M 2.54861 6.80015L 2.54861 8.92105C 2.83565 8.99281 3.13099 9.02598 3.42657 9.01935C 4.4199 9.01935 4.91668 8.62048 4.91668 7.8225C 4.91668 7.14421 4.46233 6.80506 3.55339 6.80506L 2.54861 6.80506L 2.54861 6.80015ZM 2.54861 2.48708L 2.54861 4.549L 3.39974 4.549C 4.19162 4.549 4.58744 4.18282 4.58744 3.45045C 4.60378 3.15358 4.47087 2.86825 4.23382 2.69106C 3.97774 2.50846 3.66948 2.41507 3.35585 2.42564C 3.08587 2.43178 2.81639 2.45218 2.54861 2.48708ZM 3.38267 1.18089e-09C 4.65402 1.18089e-09 5.59954 0.258047 6.219 0.77414C 6.83163 1.26615 7.1794 2.01989 7.15794 2.80902C 7.20574 3.82352 6.71798 4.78812 5.87513 5.34525C 6.34045 5.53301 6.73968 5.85643 7.02136 6.27422C 7.33865 6.76844 7.49547 7.34991 7.47011 7.93801C 7.47011 9.08497 7.0799 9.9525 6.29948 10.5406C 5.51906 11.1287 4.49062 11.4236 3.2144 11.4253C 2.74444 11.4253 2.07133 11.4148 1.19507 11.3934C 0.541471 11.3442 0.0278605 10.8097 5.819e-05 10.1498L 5.819e-05 1.30252C -0.00311222 0.978612 0.124679 0.667235 0.353682 0.439908C 0.573662 0.199556 0.880464 0.0584906 1.20482 0.0491518C 1.87476 0.0164658 2.60055 1.18089e-09 3.38267 1.18089e-09Z"/>
<path id="path1_fill" fill-rule="evenodd" d="M 2.56089 6.62811L 2.56089 8.87189C 2.87843 8.92129 3.1984 8.9525 3.51934 8.96528C 4.44926 8.96528 4.91434 8.57698 4.91434 7.80038C 4.92677 7.47008 4.81532 7.14716 4.60217 6.89599C 4.34585 6.63672 3.98832 6.50622 3.62665 6.53964C 3.26937 6.54234 2.91306 6.57429 2.56089 6.63549L 2.56089 6.62811ZM 2.56089 2.41335L 2.56089 4.20739C 2.98427 4.13293 3.41399 4.09999 3.8437 4.10909C 4.81117 4.06583 5.75645 4.40842 6.47517 5.06263C 7.15437 5.72421 7.51946 6.64777 7.47752 7.59886C 7.47752 8.77678 7.09877 9.70256 6.34103 10.3759C 5.5833 11.0493 4.5112 11.3835 3.12426 11.3786C 2.36652 11.3786 1.72512 11.3631 1.20004 11.3319C 0.875195 11.3278 0.565955 11.1901 0.344024 10.951C 0.118679 10.7168 -0.00496879 10.4022 0.000152712 10.0761L 0.000152712 1.20176C 0.00673742 0.537966 0.541323 0.00270334 1.20004 -9.38462e-09L 5.5655 -9.38462e-09C 6.22885 0.0302283 6.74246 0.596457 6.71246 1.26492C 6.68442 1.89111 6.1869 2.39246 5.5655 2.42072L 2.56089 2.42072L 2.56089 2.41335Z"/>
<path id="path2_fill" fill-rule="evenodd" d="M 4.07218e-09 1.98427e-08L 2.1559 0.34652L 0.926744 2.25852L 2.90461 2.66894L 1.79008 4.37942L 3.56065 4.6006L 2.57537 6.27668L 4.07218e-09 1.98427e-08Z"/>
<path id="path3_fill" fill-rule="evenodd" d="M 6.4735 6.67235L 5.23215 3.46274L 3.95665 6.65761L 6.46618 6.65761L 6.4735 6.67235ZM 8.08798 10.7962L 7.41731 9.07587L 3.01284 9.07587L 2.33485 10.7962C 2.16145 11.3174 1.65955 11.6544 1.11545 11.6146C 0.811575 11.6222 0.518675 11.4988 0.310645 11.2754C 0.106518 11.0631 -0.00493569 10.7773 0.000917435 10.4816C -0.00542345 10.3263 0.0211595 10.1712 0.0789591 10.027L 3.70058 1.17964C 4.02567 0.393214 4.55587 -5.74646e-09 5.29068 -5.74646e-09C 5.99793 -5.74646e-09 6.51739 0.393214 6.84907 1.17964L 10.4585 9.89425C 10.5224 10.0501 10.5553 10.2172 10.556 10.3858C 10.5321 11.0953 9.9422 11.6509 9.23812 11.6268C 8.72353 11.6094 8.26992 11.2816 8.08798 10.7962Z"/>
<path id="path4_fill" fill-rule="evenodd" d="M 0.16586 0.000408843C 0.2639 -0.00622664 0.34877 0.0687295 0.355354 0.167525C 0.361695 0.266565 0.287557 0.351844 0.189273 0.358479C 0.0914774 0.364869 0.00684883 0.29065 2.01878e-05 0.192101L 2.01878e-05 0.177355C -0.00144308 0.0827378 0.0722103 0.00434099 0.16586 0.000408843Z"/>
<path id="path5_fill" fill-rule="evenodd" d="M 0.24394 0.000902913C 0.390268 -0.0111392 0.518548 0.0987149 0.530498 0.24617C 0.542204 0.393625 0.43319 0.522894 0.286862 0.534937C 0.140534 0.546979 0.0122526 0.437125 0.000546415 0.289669C 0.000302537 0.287458 5.93366e-05 0.285491 5.93366e-05 0.283525L 5.93366e-05 0.26878C -0.00286727 0.128205 0.104684 0.00999602 0.24394 0.000902913Z"/>
<path id="path6_fill" fill-rule="evenodd" d="M 0.243938 0.000902614C 0.390266 -0.0111396 0.518547 0.0987145 0.530497 0.24617C 0.542203 0.393625 0.433188 0.522894 0.28686 0.534936C 0.140532 0.546979 0.0122513 0.437124 0.000545065 0.289669C 0.000301187 0.287457 5.79866e-05 0.285492 5.79866e-05 0.283526L 5.79866e-05 0.26878C -0.00286855 0.128206 0.104683 0.00999572 0.243938 0.000902614Z"/>
<path id="path7_fill" fill-rule="evenodd" d="M 0.243937 0.000902385C 0.390265 -0.0111398 0.518548 0.098715 0.530498 0.24617C 0.542205 0.393625 0.43319 0.522895 0.286862 0.534937C 0.140534 0.546979 0.0122528 0.437125 0.000546554 0.28967C 0.000302676 0.287458 5.94757e-05 0.285491 5.94757e-05 0.283525L 5.94757e-05 0.26878C -0.00286706 0.128206 0.104682 0.00999549 0.243937 0.000902385Z"/>
<path id="path8_fill" fill-rule="evenodd" d="M 0.373136 0.000135017C 0.619943 0.0691933 0.803584 0.278088 0.841385 0.533431C 0.855287 0.80991 0.647257 1.04707 0.373136 1.06673C 0.165838 1.06673 6.36061e-07 0.550634 6.36061e-07 0.354027C 0.00658541 0.152751 0.173399 -0.00527169 0.373136 0.000135017Z"/>
<path id="path9_fill" fill-rule="evenodd" d="M 0.351648 1.6429e-08C 0.493098 1.6429e-08 0.566261 0.179404 0.517485 0.400587C 0.499438 0.591787 0.365305 0.751776 0.180932 0.801174C 0.0394811 0.801174 -0.0336819 0.62177 0.0150941 0.400587C 0.0331413 0.209387 0.167274 0.0493975 0.351648 1.6429e-08Z"/>
<path id="path10_fill" fill-rule="evenodd" d="M 0.244087 0.000902728C 0.390415 -0.0111395 0.518696 0.0987146 0.530646 0.24617C 0.542352 0.393625 0.433337 0.522894 0.287009 0.534937C 0.140681 0.546979 0.0124003 0.437125 0.000693995 0.289669C 0.000450117 0.287458 0.000206917 0.285491 0.000206917 0.283525L 0.000206917 0.26878C -0.00540228 0.127223 0.103612 0.00753822 0.244087 0.000902728Z"/>
<path id="path11_fill" fill-rule="evenodd" d="M 0.209794 0.000282457C 0.332222 -0.00586153 0.436357 0.089001 0.442454 0.212372C 0.448551 0.335743 0.354415 0.440928 0.231987 0.447072C 0.113949 0.45297 0.0120059 0.364497 5.57594e-05 0.246041C -0.0026269 0.126111 0.0907809 0.0263331 0.209794 0.022401L 0.209794 0.000282457Z"/>
<path id="path12_fill" fill-rule="evenodd" d="M 0.467188 1.77916e-07C 0.64522 0.049152 0.759844 0.491518 0.711068 0.710243C 0.690338 0.999747 0.442556 1.21872 0.155022 1.20176C -0.023011 1.15261 -0.0230098 0.535754 0.0330826 0.317029C 0.0642993 0.116244 0.250867 -0.0211354 0.450117 0.0098302L 0.467188 1.77916e-07Z"/>
<path id="path13_fill" fill-rule="evenodd" d="M 0.24466 0.00816965C 0.413913 -0.0311518 0.582923 0.075262 0.621943 0.245819C 0.660964 0.416375 0.555366 0.586686 0.386113 0.626007C 0.21686 0.665329 0.0478501 0.558916 0.00882934 0.388359C 0.00370784 0.365995 0.00102616 0.343139 0.000782287 0.320283C -0.0101924 0.168404 0.0956493 0.0332371 0.24466 0.00816965Z"/>
<path id="path14_fill" fill-rule="evenodd" d="M 0.466496 1.06659C 0.220665 0.996798 0.0382424 0.787903 0.000684913 0.533297C -0.0134601 0.257555 0.19335 0.0208895 0.466496 -2.3221e-08C 0.671355 -2.3221e-08 0.837194 0.516093 0.837194 0.7127C 0.830609 0.912994 0.665258 1.07077 0.466496 1.06659Z"/>
<path id="path15_fill" fill-rule="evenodd" d="M 0.331819 0.000653073C 0.526679 -0.0111434 0.694469 0.138278 0.706175 0.334885C 0.717881 0.531246 0.569602 0.700083 0.374497 0.712125C 0.179637 0.723921 0.0120917 0.574254 0.000141584 0.377893L 0.000141584 0.376664L 0.000141584 0.357003C -0.00522373 0.16654 0.142812 0.00728856 0.331819 0.000653073Z"/>
<path id="path16_fill" fill-rule="evenodd" d="M 0.16586 0.000408756C 0.2639 -0.00622673 0.348769 0.0687296 0.355354 0.167525C 0.361695 0.266565 0.287557 0.351844 0.189273 0.358479C 0.0914771 0.364869 0.00685107 0.29065 2.24241e-05 0.1921L 2.24241e-05 0.177355C -0.00144084 0.0827378 0.07221 0.00434089 0.16586 0.000408756Z"/>
</defs>
</svg>

<svg width="30" height="13" viewBox="0 0 30 13" xmlns="http://www.w3.org/2000/svg" xmlns:xlink="http://www.w3.org/1999/xlink"><title>rus_lang</title><desc>Created using Figma</desc><use xlink:href="#a" transform="translate(22.53 .96)" fill="#6F578E"/><use xlink:href="#b" transform="translate(12.42 1.035)" fill="#FFC609"/><use xlink:href="#c" transform="translate(6.62 1.946)" fill="#231F1F"/><use xlink:href="#d" transform="translate(0 .875)" fill="#F05A69"/><use xlink:href="#e" transform="translate(28.74 3.407)" fill="#644F82"/><use xlink:href="#f" transform="translate(23.01 8.824)" fill="#644F82"/><use xlink:href="#g" transform="translate(24.02 10.616)" fill="#644F82"/><use xlink:href="#h" transform="translate(22.85 9.814)" fill="#644F82"/><use xlink:href="#i" transform="translate(22.92 10.794)" fill="#644F82"/><use xlink:href="#j" transform="translate(28.46 4.383)" fill="#644F82"/><use xlink:href="#k" transform="translate(23.68 3.039)" fill="#644F82"/><use xlink:href="#l" transform="translate(27.56 10.884)" fill="#644F82"/><use xlink:href="#m" transform="translate(28.76 9.23)" fill="#644F82"/><use xlink:href="#n" transform="translate(28.15 10.539)" fill="#644F82"/><use xlink:href="#o" transform="translate(22.91 1.445)" fill="#644F82"/><use xlink:href="#p" transform="translate(24.34 1.794)" fill="#644F82"/><use xlink:href="#q" transform="translate(22.81 3.039)" fill="#644F82"/><defs><path id="a" fill-rule="evenodd" d="M2.549 6.8v2.121c.287.072.582.105.878.098.993 0 1.49-.399 1.49-1.197 0-.678-.455-1.017-1.364-1.017H2.55V6.8zm0-4.313V4.55h.85c.793 0 1.188-.366 1.188-1.099a.887.887 0 0 0-.353-.759 1.43 1.43 0 0 0-.878-.265 7.58 7.58 0 0 0-.807.061zM3.383 0C4.654 0 5.6.258 6.219.774c.613.492.96 1.246.939 2.035a2.877 2.877 0 0 1-1.283 2.536 2.52 2.52 0 0 1 1.146.93c.318.493.474 1.075.45 1.663 0 1.147-.391 2.015-1.172 2.603-.78.588-1.808.883-3.085.884-.47 0-1.143-.01-2.019-.032A1.298 1.298 0 0 1 0 10.15V1.303A1.2 1.2 0 0 1 .354.44a1.2 1.2 0 0 1 .85-.39C1.875.015 2.602 0 3.384 0z"/><path id="b" fill-rule="evenodd" d="M2.56 6.628v2.244c.318.05.638.08.96.093.93 0 1.394-.388 1.394-1.165a1.321 1.321 0 0 0-.312-.904 1.214 1.214 0 0 0-.975-.356 6.51 6.51 0 0 0-1.066.095v-.007zm0-4.215v1.794a6.6 6.6 0 0 1 1.284-.098c.967-.043 1.912.3 2.631.954a3.336 3.336 0 0 1 1.003 2.536c0 1.178-.38 2.104-1.137 2.777-.758.673-1.83 1.008-3.217 1.003-.757 0-1.399-.016-1.924-.047a1.189 1.189 0 0 1-.856-.381A1.234 1.234 0 0 1 0 10.076V1.202A1.21 1.21 0 0 1 1.2 0h4.366c.663.03 1.176.596 1.146 1.265A1.207 1.207 0 0 1 5.566 2.42H2.56v-.008z"/><path id="c" fill-rule="evenodd" d="M0 0l2.156.347-1.23 1.912 1.979.41-1.115 1.71 1.77.222-.985 1.676L0 0z"/><path id="d" fill-rule="evenodd" d="M6.473 6.672l-1.24-3.21-1.276 3.196h2.51l.006.014zm1.615 4.124l-.67-1.72H3.012l-.678 1.72a1.195 1.195 0 0 1-1.22.819 1.064 1.064 0 0 1-.804-.34 1.114 1.114 0 0 1-.31-.793c-.006-.156.02-.31.078-.455L3.701 1.18C4.026.393 4.556 0 5.29 0c.707 0 1.226.393 1.558 1.18l3.61 8.714c.063.156.096.323.097.492a1.28 1.28 0 0 1-1.318 1.24 1.276 1.276 0 0 1-1.15-.83z"/><path id="e" fill-rule="evenodd" d="M.166 0a.18.18 0 1 1 .023.358A.178.178 0 0 1 0 .192V.177A.174.174 0 0 1 .166 0z"/><path id="f" fill-rule="evenodd" d="M.244 0a.268.268 0 1 1 .043.534A.266.266 0 0 1 0 .29V.269A.262.262 0 0 1 .243 0z"/><path id="g" fill-rule="evenodd" d="M.244 0a.268.268 0 1 1 .043.534A.266.266 0 0 1 0 .29V.269A.262.262 0 0 1 .243 0z"/><path id="h" fill-rule="evenodd" d="M.244 0a.268.268 0 1 1 .043.534A.266.266 0 0 1 0 .29V.269A.262.262 0 0 1 .243 0z"/><path id="i" fill-rule="evenodd" d="M.373 0c.247.07.43.278.468.533a.507.507 0 0 1-.468.534C.166 1.067 0 .55 0 .354A.365.365 0 0 1 .373 0z"/><path id="j" fill-rule="evenodd" d="M.352 0c.141 0 .214.18.165.4a.458.458 0 0 1-.336.401c-.142 0-.215-.18-.166-.4A.458.458 0 0 1 .352 0z"/><path id="k" fill-rule="evenodd" d="M.244 0a.268.268 0 1 1 .043.534A.266.266 0 0 1 .001.29V.269A.257.257 0 0 1 .243 0z"/><path id="l" fill-rule="evenodd" d="M.21 0a.222.222 0 0 1 .232.212.223.223 0 0 1-.21.235A.223.223 0 0 1 0 .246.218.218 0 0 1 .21.022V0z"/><path id="m" fill-rule="evenodd" d="M.467 0C.645.05.76.492.711.71a.528.528 0 0 1-.556.492C-.023 1.152-.023.536.033.317A.366.366 0 0 1 .45.01L.467 0z"/><path id="n" fill-rule="evenodd" d="M.245.008a.317.317 0 0 1 .141.618A.315.315 0 0 1 .001.32.294.294 0 0 1 .245.008z"/><path id="o" fill-rule="evenodd" d="M.466 1.067A.652.652 0 0 1 .001.533.507.507 0 0 1 .466 0c.205 0 .371.516.371.713a.365.365 0 0 1-.37.354z"/><path id="p" fill-rule="evenodd" d="M.332 0a.355.355 0 0 1 .374.335.356.356 0 0 1-.332.377A.355.355 0 0 1 0 .378V.357A.345.345 0 0 1 .332.001z"/><path id="q" fill-rule="evenodd" d="M.166 0a.18.18 0 1 1 .023.358A.178.178 0 0 1 0 .192V.177A.174.174 0 0 1 .166 0z"/></defs></svg>
